images/name.svg

<?xml version="1.0" encoding="UTF-8" standalone="yes"?>
<svg width="2.8575in" height="2.1127in" version="1.1" viewBox="250 375 200 50" xmlns="http://www.w3.org/2000/svg">
<title>Josh</title>
<g fill="none" stroke="#fff" stroke-linecap="round" stroke-linejoin="round">
<path d="m326.53 421.85q-1.797-0.727-3.359-1.29-1.563-0.562-3.086-1.195-1.524-0.633-3.18-1.394-1.656-0.762-3.117-1.623-1.461-0.862-3.086-1.993-1.625-1.13-3.023-2.326-1.399-1.195-2.852-2.584-1.453-1.388-3.078-3.416-1.625-2.027-3.188-4.881-1.562-2.853-2.46-5.273-0.899-2.42-1.524-5.273-0.625-2.854-0.726-6.106-0.102-3.252 0.093-6.732 0.196-3.481 0.961-6.803 0.766-3.322 1.992-6.539 1.227-3.217 2.391-5.637t2.852-5.209q1.687-2.789 3.547-5.244 1.859-2.455 3.515-3.979 1.656-1.523 3.055-2.654 1.398-1.131 3.219-2.156 1.82-1.025 3.414-1.623 1.593-0.598 3.023-0.861 1.43-0.264 2.891-0.264t2.75 0.064q1.289 0.065 2.515 0.791 1.227 0.727 2.524 2.022t2.289 2.754 2.023 3.914q1.032 2.455 1.727 5.144 0.695 2.69 1.031 5.479t0.469 6.334 0.094 7.892q-0.039 4.348-0.469 7.6t-1.227 7.365q-0.797 4.114-1.859 8.127-1.063 4.014-2.289 7.664-1.227 3.651-2.649 7.336-1.422 3.686-3.046 7.33-1.626 3.645-3.118 6.698-1.492 3.052-3.32 6.339-1.828 3.288-3.852 6.405-2.023 3.117-3.882 5.836-1.86 2.718-3.547 4.945-1.688 2.226-3.946 5.08-2.257 2.854-3.851 4.377t-3.219 3.047q-1.625 1.523-3.383 2.789t-3.187 1.928q-1.43 0.662-2.586 0.89-1.156 0.229-2.156 0.229t-1.727-0.328q-0.726-0.328-1.258-1.225-0.531-0.896-0.765-2.32-0.235-1.424-0.235-2.754t0.336-3.053 1.297-3.68l0.961-1.957" stroke-width="1.965"/>
<path d="m355.86 394.91q-0.609 0.141-1.14 0.24-0.531 0.1-1.094 0.264t-1.156 0.498q-0.594 0.334-1.094 0.697-0.5 0.364-1.063 0.897-0.562 0.533-1.164 1.195-0.601 0.662-1.328 1.559-0.726 0.896-1.226 1.594-0.5 0.697-1.125 1.787-0.625 1.089-1.063 1.921-0.437 0.833-0.867 1.829t-0.727 1.722q-0.296 0.727-0.46 1.424t-0.235 1.395q-0.07 0.697-0.07 1.295 0 0.597 0.07 1.031 0.071 0.433 0.469 0.797 0.398 0.363 0.891 0.562 0.492 0.199 1.195 0.235 0.703 0.035 1.398 0.035 0.696 0 1.688-0.299t1.922-0.832q0.929-0.533 1.961-1.26 1.031-0.726 2.093-1.658 1.063-0.932 2.024-1.828 0.961-0.897 1.82-1.858 0.86-0.961 1.727-2.056 0.867-1.096 1.398-1.858 0.531-0.761 1.063-1.722 0.531-0.961 0.789-1.629 0.257-0.668 0.39-1.395 0.133-0.726 0.133-1.06t0-0.832-0.266-0.797q-0.265-0.299-0.757-0.528-0.493-0.228-1.157-0.298-0.664-0.071-1.46-0.071-0.797 0-1.626 0-0.828 0-1.859 0.299t-1.758 0.668q-0.726 0.369-1.687 0.867t-1.797 1.061q-0.836 0.562-1.633 1.189t-1.359 1.096q-0.563 0.469-1.227 1.166t-0.992 1.189q-0.328 0.493-0.594 0.926-0.265 0.434-0.429 0.932-0.165 0.498-0.165 0.832t0 0.562q0 0.229 0.36 0.399 0.359 0.17 0.93 0.199l0.57 0.029" stroke-width="3.299"/>
<path d="m383.86 383.31q0-0.399-0.132-0.598-0.133-0.199-0.438-0.299t-0.601-0.135q-0.297-0.035-0.665-0.035-0.367 0-0.726 0t-0.859 0.1q-0.5 0.099-1.032 0.334-0.531 0.234-1.226 0.597-0.696 0.364-1.289 0.762-0.594 0.399-1.297 0.826-0.703 0.428-1.196 0.727-0.492 0.299-1.195 0.797t-1.101 0.832q-0.399 0.334-0.758 0.697-0.36 0.363-0.696 0.732-0.336 0.37-0.5 0.698t-0.296 0.691q-0.133 0.363-0.164 0.733-0.032 0.369-0.032 0.697t0 0.726q0 0.399 0.235 0.797 0.234 0.399 0.593 0.797 0.36 0.399 0.758 0.762 0.399 0.363 1 0.797 0.602 0.433 1.196 0.797 0.593 0.363 1.195 0.662 0.601 0.299 1.297 0.633 0.695 0.334 1.289 0.632 0.593 0.299 1.195 0.563t1.164 0.562q0.563 0.299 0.992 0.598 0.43 0.299 0.758 0.563 0.328 0.263 0.633 0.562t0.469 0.598q0.164 0.298 0.226 0.533 0.063 0.234 0.063 0.668 0 0.433-0.031 0.797-0.032 0.363-0.36 0.826t-0.797 0.896q-0.469 0.434-1 0.832-0.531 0.399-1.226 0.797-0.696 0.399-1.391 0.727t-1.195 0.562q-0.5 0.235-1.164 0.463-0.664 0.229-1.227 0.364-0.562 0.134-1.094 0.199-0.531 0.064-0.929 0.064-0.399 0-0.797 0-0.399 0-0.696 0-0.296 0-0.46-0.199t-0.235-0.463l-0.07-0.264" stroke-width="3.4"/>
<path d="m391.95 390.4q0.328-0.398 0.492-0.597t0.328-0.463q0.165-0.264 0.368-0.527 0.203-0.264 0.398-0.563t0.399-0.633q0.203-0.334 0.437-0.633 0.234-0.298 0.43-0.662 0.195-0.363 0.461-0.761 0.265-0.399 0.461-0.698 0.195-0.299 0.461-0.662 0.265-0.363 0.5-0.697 0.234-0.334 0.468-0.633 0.235-0.299 0.399-0.562 0.164-0.264 0.328-0.498 0.164-0.235 0.297-0.399 0.132-0.164 0.234-0.328t0.133-0.264q0.031-0.099 0.101-0.234 0.071-0.135-0.195 0.164-0.265 0.299-0.601 0.797t-0.696 1.031q-0.359 0.533-0.89 1.395-0.532 0.861-1 1.558-0.469 0.698-1 1.659-0.532 0.96-1.125 2.056-0.594 1.096-1.157 2.256-0.562 1.16-1.062 2.256t-1.031 2.256q-0.532 1.16-0.86 2.021-0.328 0.862-0.726 1.922-0.399 1.061-0.664 1.957-0.266 0.897-0.469 1.729t-0.305 1.359q-0.101 0.527-0.133 1.16-0.031 0.633-0.031 1.067 0 0.433 0 0.826 0 0.392 0.133 0.691t0.43 0.434l0.296 0.134" stroke-width="3.322"/>
<path d="m398.98 392.13q-0.203 0.457-0.304 0.527-0.102 0.07-0.196 0.199-0.093 0.129-0.195 0.229-0.101 0.1-0.172 0.234-0.07 0.135-0.101 0.235-0.032 0.099-0.063 0.199-0.031 0.099 0.235 0.234 0.265 0.135 0.664 0.135 0.398 0 0.796 0 0.399 0 1.063-0.199t1.289-0.498 1.391-0.768q0.765-0.469 1.531-1.096 0.766-0.626 1.625-1.423t1.687-1.659q0.828-0.861 1.696-1.857 0.867-0.996 1.625-1.992 0.757-0.996 1.625-2.192 0.867-1.195 1.664-2.355t1.625-2.555q0.828-1.394 1.422-2.291 0.593-0.896 1.226-2.056 0.633-1.161 1.031-1.987 0.399-0.826 0.766-1.623t0.695-1.594q0.329-0.796 0.461-1.294 0.133-0.498 0.203-0.862 0.071-0.363 0.071-0.597 0-0.235 0-0.37 0-0.134-0.133-0.134t-0.5 0.07-1 0.662-1.391 1.389-1.726 2.027q-0.969 1.231-1.86 2.525-0.89 1.295-1.851 2.854t-1.961 3.281q-1 1.723-1.891 3.381-0.89 1.658-1.726 3.451t-1.727 3.914q-0.89 2.121-1.461 3.452-0.57 1.33-1.062 2.789-0.493 1.459-0.891 2.888-0.398 1.43-0.633 2.754-0.234 1.324-0.265 2.256-0.032 0.932-0.032 1.922t0.164 1.787 0.532 1.465q0.367 0.668 0.961 1.195 0.593 0.527 1.195 0.861l0.602 0.334" stroke-width="2.822"/>
</g>
</svg>

<?xml version="1.0" encoding="UTF-8" standalone="yes"?>
<svg xmlns="http://www.w3.org/2000/svg" xmlns:xlink="http://www.w3.org/1999/xlink" width="2.857537in" height="2.112651in" version="1.1" viewBox="250 375 200 50">
  <title>Josh</title>
  <g id="Pen" opacity="1.000">
    <path id="STROKE_EBE09C93-1C67-4919-94B1-BB6742799F2A" opacity="1.000" fill="none" stroke="white" stroke-width="1.965" stroke-opacity="1.000" stroke-linecap="round" stroke-linejoin="round" d="M 326.531 421.852 Q 324.734 421.125 323.172 420.562 Q 321.609 420.000 320.086 419.367 Q 318.562 418.734 316.906 417.973 Q 315.250 417.211 313.789 416.350 Q 312.328 415.488 310.703 414.357 Q 309.078 413.227 307.680 412.031 Q 306.281 410.836 304.828 409.447 Q 303.375 408.059 301.750 406.031 Q 300.125 404.004 298.562 401.150 Q 297.000 398.297 296.102 395.877 Q 295.203 393.457 294.578 390.604 Q 293.953 387.750 293.852 384.498 Q 293.750 381.246 293.945 377.766 Q 294.141 374.285 294.906 370.963 Q 295.672 367.641 296.898 364.424 Q 298.125 361.207 299.289 358.787 Q 300.453 356.367 302.141 353.578 Q 303.828 350.789 305.688 348.334 Q 307.547 345.879 309.203 344.355 Q 310.859 342.832 312.258 341.701 Q 313.656 340.570 315.477 339.545 Q 317.297 338.520 318.891 337.922 Q 320.484 337.324 321.914 337.061 Q 323.344 336.797 324.805 336.797 Q 326.266 336.797 327.555 336.861 Q 328.844 336.926 330.070 337.652 Q 331.297 338.379 332.594 339.674 Q 333.891 340.969 334.883 342.428 Q 335.875 343.887 336.906 346.342 Q 337.938 348.797 338.633 351.486 Q 339.328 354.176 339.664 356.965 Q 340.000 359.754 340.133 363.299 Q 340.266 366.844 340.227 371.191 Q 340.188 375.539 339.758 378.791 Q 339.328 382.043 338.531 386.156 Q 337.734 390.270 336.672 394.283 Q 335.609 398.297 334.383 401.947 Q 333.156 405.598 331.734 409.283 Q 330.312 412.969 328.688 416.613 Q 327.062 420.258 325.570 423.311 Q 324.078 426.363 322.250 429.650 Q 320.422 432.938 318.398 436.055 Q 316.375 439.172 314.516 441.891 Q 312.656 444.609 310.969 446.836 Q 309.281 449.062 307.023 451.916 Q 304.766 454.770 303.172 456.293 Q 301.578 457.816 299.953 459.340 Q 298.328 460.863 296.570 462.129 Q 294.812 463.395 293.383 464.057 Q 291.953 464.719 290.797 464.947 Q 289.641 465.176 288.641 465.176 Q 287.641 465.176 286.914 464.848 Q 286.188 464.520 285.656 463.623 Q 285.125 462.727 284.891 461.303 Q 284.656 459.879 284.656 458.549 Q 284.656 457.219 284.992 455.496 Q 285.328 453.773 286.289 451.816 L 287.250 449.859 "></path>
    <path id="STROKE_C8667191-9F8E-4A1C-869E-4A6CDE02E1C7" opacity="1.000" fill="none" stroke="white" stroke-width="3.299" stroke-opacity="1.000" stroke-linecap="round" stroke-linejoin="round" d="M 355.859 394.910 Q 355.250 395.051 354.719 395.150 Q 354.188 395.250 353.625 395.414 Q 353.062 395.578 352.469 395.912 Q 351.875 396.246 351.375 396.609 Q 350.875 396.973 350.312 397.506 Q 349.750 398.039 349.148 398.701 Q 348.547 399.363 347.820 400.260 Q 347.094 401.156 346.594 401.854 Q 346.094 402.551 345.469 403.641 Q 344.844 404.730 344.406 405.562 Q 343.969 406.395 343.539 407.391 Q 343.109 408.387 342.812 409.113 Q 342.516 409.840 342.352 410.537 Q 342.188 411.234 342.117 411.932 Q 342.047 412.629 342.047 413.227 Q 342.047 413.824 342.117 414.258 Q 342.188 414.691 342.586 415.055 Q 342.984 415.418 343.477 415.617 Q 343.969 415.816 344.672 415.852 Q 345.375 415.887 346.070 415.887 Q 346.766 415.887 347.758 415.588 Q 348.750 415.289 349.680 414.756 Q 350.609 414.223 351.641 413.496 Q 352.672 412.770 353.734 411.838 Q 354.797 410.906 355.758 410.010 Q 356.719 409.113 357.578 408.152 Q 358.438 407.191 359.305 406.096 Q 360.172 405.000 360.703 404.238 Q 361.234 403.477 361.766 402.516 Q 362.297 401.555 362.555 400.887 Q 362.812 400.219 362.945 399.492 Q 363.078 398.766 363.078 398.432 Q 363.078 398.098 363.078 397.600 Q 363.078 397.102 362.812 396.803 Q 362.547 396.504 362.055 396.275 Q 361.562 396.047 360.898 395.977 Q 360.234 395.906 359.438 395.906 Q 358.641 395.906 357.812 395.906 Q 356.984 395.906 355.953 396.205 Q 354.922 396.504 354.195 396.873 Q 353.469 397.242 352.508 397.740 Q 351.547 398.238 350.711 398.801 Q 349.875 399.363 349.078 399.990 Q 348.281 400.617 347.719 401.086 Q 347.156 401.555 346.492 402.252 Q 345.828 402.949 345.500 403.441 Q 345.172 403.934 344.906 404.367 Q 344.641 404.801 344.477 405.299 Q 344.312 405.797 344.312 406.131 Q 344.312 406.465 344.312 406.693 Q 344.312 406.922 344.672 407.092 Q 345.031 407.262 345.602 407.291 L 346.172 407.320 "></path>
    <path id="STROKE_4C350C78-C9F9-4472-9EF6-2887E75BCD1A" opacity="1.000" fill="none" stroke="white" stroke-width="3.400" stroke-opacity="1.000" stroke-linecap="round" stroke-linejoin="round" d="M 383.859 383.309 Q 383.859 382.910 383.727 382.711 Q 383.594 382.512 383.289 382.412 Q 382.984 382.312 382.688 382.277 Q 382.391 382.242 382.023 382.242 Q 381.656 382.242 381.297 382.242 Q 380.938 382.242 380.438 382.342 Q 379.938 382.441 379.406 382.676 Q 378.875 382.910 378.180 383.273 Q 377.484 383.637 376.891 384.035 Q 376.297 384.434 375.594 384.861 Q 374.891 385.289 374.398 385.588 Q 373.906 385.887 373.203 386.385 Q 372.500 386.883 372.102 387.217 Q 371.703 387.551 371.344 387.914 Q 370.984 388.277 370.648 388.646 Q 370.312 389.016 370.148 389.344 Q 369.984 389.672 369.852 390.035 Q 369.719 390.398 369.688 390.768 Q 369.656 391.137 369.656 391.465 Q 369.656 391.793 369.656 392.191 Q 369.656 392.590 369.891 392.988 Q 370.125 393.387 370.484 393.785 Q 370.844 394.184 371.242 394.547 Q 371.641 394.910 372.242 395.344 Q 372.844 395.777 373.438 396.141 Q 374.031 396.504 374.633 396.803 Q 375.234 397.102 375.930 397.436 Q 376.625 397.770 377.219 398.068 Q 377.812 398.367 378.414 398.631 Q 379.016 398.895 379.578 399.193 Q 380.141 399.492 380.570 399.791 Q 381.000 400.090 381.328 400.354 Q 381.656 400.617 381.961 400.916 Q 382.266 401.215 382.430 401.514 Q 382.594 401.812 382.656 402.047 Q 382.719 402.281 382.719 402.715 Q 382.719 403.148 382.688 403.512 Q 382.656 403.875 382.328 404.338 Q 382.000 404.801 381.531 405.234 Q 381.062 405.668 380.531 406.066 Q 380.000 406.465 379.305 406.863 Q 378.609 407.262 377.914 407.590 Q 377.219 407.918 376.719 408.152 Q 376.219 408.387 375.555 408.615 Q 374.891 408.844 374.328 408.979 Q 373.766 409.113 373.234 409.178 Q 372.703 409.242 372.305 409.242 Q 371.906 409.242 371.508 409.242 Q 371.109 409.242 370.812 409.242 Q 370.516 409.242 370.352 409.043 Q 370.188 408.844 370.117 408.580 L 370.047 408.316 "></path>
    <path id="STROKE_B647DA60-BF52-4DC6-9DBA-F5343B164AC1" opacity="1.000" fill="none" stroke="white" stroke-width="3.322" stroke-opacity="1.000" stroke-linecap="round" stroke-linejoin="round" d="M 391.953 390.398 Q 392.281 390.000 392.445 389.801 Q 392.609 389.602 392.773 389.338 Q 392.938 389.074 393.141 388.811 Q 393.344 388.547 393.539 388.248 Q 393.734 387.949 393.938 387.615 Q 394.141 387.281 394.375 386.982 Q 394.609 386.684 394.805 386.320 Q 395.000 385.957 395.266 385.559 Q 395.531 385.160 395.727 384.861 Q 395.922 384.562 396.188 384.199 Q 396.453 383.836 396.688 383.502 Q 396.922 383.168 397.156 382.869 Q 397.391 382.570 397.555 382.307 Q 397.719 382.043 397.883 381.809 Q 398.047 381.574 398.180 381.410 Q 398.312 381.246 398.414 381.082 Q 398.516 380.918 398.547 380.818 Q 398.578 380.719 398.648 380.584 Q 398.719 380.449 398.453 380.748 Q 398.188 381.047 397.852 381.545 Q 397.516 382.043 397.156 382.576 Q 396.797 383.109 396.266 383.971 Q 395.734 384.832 395.266 385.529 Q 394.797 386.227 394.266 387.188 Q 393.734 388.148 393.141 389.244 Q 392.547 390.340 391.984 391.500 Q 391.422 392.660 390.922 393.756 Q 390.422 394.852 389.891 396.012 Q 389.359 397.172 389.031 398.033 Q 388.703 398.895 388.305 399.955 Q 387.906 401.016 387.641 401.912 Q 387.375 402.809 387.172 403.641 Q 386.969 404.473 386.867 405.000 Q 386.766 405.527 386.734 406.160 Q 386.703 406.793 386.703 407.227 Q 386.703 407.660 386.703 408.053 Q 386.703 408.445 386.836 408.744 Q 386.969 409.043 387.266 409.178 L 387.562 409.312 "></path>
    <path id="STROKE_38CF4A71-7675-490B-89C1-5C7B69A62F55" opacity="1.000" fill="none" stroke="white" stroke-width="2.822" stroke-opacity="1.000" stroke-linecap="round" stroke-linejoin="round" d="M 398.984 392.133 Q 398.781 392.590 398.680 392.660 Q 398.578 392.730 398.484 392.859 Q 398.391 392.988 398.289 393.088 Q 398.188 393.188 398.117 393.322 Q 398.047 393.457 398.016 393.557 Q 397.984 393.656 397.953 393.756 Q 397.922 393.855 398.188 393.990 Q 398.453 394.125 398.852 394.125 Q 399.250 394.125 399.648 394.125 Q 400.047 394.125 400.711 393.926 Q 401.375 393.727 402.000 393.428 Q 402.625 393.129 403.391 392.660 Q 404.156 392.191 404.922 391.564 Q 405.688 390.938 406.547 390.141 Q 407.406 389.344 408.234 388.482 Q 409.062 387.621 409.930 386.625 Q 410.797 385.629 411.555 384.633 Q 412.312 383.637 413.180 382.441 Q 414.047 381.246 414.844 380.086 Q 415.641 378.926 416.469 377.531 Q 417.297 376.137 417.891 375.240 Q 418.484 374.344 419.117 373.184 Q 419.750 372.023 420.148 371.197 Q 420.547 370.371 420.914 369.574 Q 421.281 368.777 421.609 367.980 Q 421.938 367.184 422.070 366.686 Q 422.203 366.188 422.273 365.824 Q 422.344 365.461 422.344 365.227 Q 422.344 364.992 422.344 364.857 Q 422.344 364.723 422.211 364.723 Q 422.078 364.723 421.711 364.793 Q 421.344 364.863 420.711 365.455 Q 420.078 366.047 419.320 366.844 Q 418.562 367.641 417.594 368.871 Q 416.625 370.102 415.734 371.396 Q 414.844 372.691 413.883 374.250 Q 412.922 375.809 411.922 377.531 Q 410.922 379.254 410.031 380.912 Q 409.141 382.570 408.305 384.363 Q 407.469 386.156 406.578 388.277 Q 405.688 390.398 405.117 391.729 Q 404.547 393.059 404.055 394.518 Q 403.562 395.977 403.164 397.406 Q 402.766 398.836 402.531 400.160 Q 402.297 401.484 402.266 402.416 Q 402.234 403.348 402.234 404.338 Q 402.234 405.328 402.398 406.125 Q 402.562 406.922 402.930 407.590 Q 403.297 408.258 403.891 408.785 Q 404.484 409.312 405.086 409.646 L 405.688 409.980 "></path>
  </g>
</svg>
